dist/assets/img/nhl/teams/mtl.svg

<svg xmlns="http://www.w3.org/2000/svg" viewBox="0 0 24 16"><g fill="#fff"><path d="M19.394 7.912l1.358-1.427-.772-3.557-3.433-1.019-.309.286c-1.147-.342-3.213-.696-4.591-.694C6.54 1.509 2.526 4.35 2.51 7.967c0 3.095 2.669 6.533 9.181 6.533 5.16 0 9.799-3.435 9.799-3.435l-2.096-3.153zm.839 4.42a.384.384 0 1 0-.001.769.384.384 0 0 0 .001-.769zm0 .686a.302.302 0 1 1-.002-.604.302.302 0 0 1 .002.604z"/><path d="M20.391 12.627a.13.13 0 0 0-.131-.13h-.186v.438h.083v-.179h.059l.084.179h.091l-.088-.186a.13.13 0 0 0 .088-.122zm-.131.048h-.103v-.096h.103c.027 0 .048.021.048.048s-.021.048-.048.048z"/></g><path fill="#192168" d="M18.939 7.873l1.426-1.497-.688-3.168-3.036-.901-.312.289c-1.023-.338-3.215-.742-4.681-.74-4.981.009-8.768 2.742-8.782 6.112-.016 3.535 3.413 6.176 8.825 6.176 3.789 0 7.67-2.021 9.31-3.171l-2.062-3.1z"/><path fill="#fff" d="M18.406 8.202s-2.15 1.468-4.52 1.91V5.947c2.573.324 4.098 2.006 4.098 2.006L19.7 6.181l-.551-2.486-2.344-.686-.297.324c-.951-.372-2.914-.854-5.088-.854-4.354 0-7.911 2.468-7.917 5.512-.006 2.965 3.012 5.532 7.884 5.532 4.5 0 7.749-2.145 8.767-2.719l-1.748-2.602zm-7.427-.785V5.711a11.11 11.11 0 0 1 1.724.057v1.649h-1.724zm1.723 1.129v1.718c-.485.058-1.224.072-1.724.036V8.546h1.724zm-2.96-2.735v4.371c-.718 0-3.008-.842-3.008-2.168 0-1.64 2.341-2.093 3.008-2.203z"/><path d="M9.113 9.42V6.573c-.821.239-1.743.704-1.743 1.441 0 .504.778 1.113 1.743 1.406zm8.173-1.281a6.582 6.582 0 0 0-2.766-1.448v2.627a12.375 12.375 0 0 0 2.766-1.179zm-5.844-1.222h.805V6.25l-.805-.032zm-.018 2.155h.828v.701h-.828z" fill="#fff"/><path fill="#af1e2d" d="M18.281 8.819c-2.813 1.652-4.687 1.973-6.97 1.952-3.21-.03-5.039-1.315-5.039-2.845 0-1.379 1.677-2.694 5.104-2.694 2.306 0 5.085.618 6.57 2.082l1.235-1.26-.421-2-1.822-.532-.331.374c-.999-.4-2.688-.954-5.285-.954-3.919 0-7.356 2.264-7.356 5.004 0 2.862 2.993 5.106 7.24 5.106 4.308 0 6.836-1.623 8.296-2.39l-1.221-1.843z"/></svg>

<svg xmlns="http://www.w3.org/2000/svg" viewBox="0 0 24 16"><g fill="#fff"><path d="M19.394 7.912l1.358-1.427L19.98 2.928l-3.433-1.019-.309.286c-1.147-.342-3.213-.696-4.591-.694C6.54 1.509 2.526 4.35 2.51 7.967c0 3.095 2.669 6.533 9.181 6.533 5.16 0 9.799-3.435 9.799-3.435L19.394 7.912zM20.233 12.332c-.213 0-.385.172-.385.384 0 .213.172.384.385.384.211 0 .382-.171.382-.384C20.615 12.504 20.444 12.332 20.233 12.332zM20.233 13.018c-.168 0-.303-.135-.303-.302s.135-.302.303-.302c.165 0 .302.135.302.302S20.398 13.018 20.233 13.018z"/><path d="M20.391,12.627c0-0.072-0.059-0.13-0.131-0.13h-0.186v0.438h0.083v-0.179h0.059l0.084,0.179h0.091 l-0.088-0.186C20.354,12.731,20.391,12.684,20.391,12.627z M20.26,12.675h-0.103v-0.096h0.103c0.027,0,0.048,0.021,0.048,0.048 S20.287,12.675,20.26,12.675z"/></g><path fill="#192168" d="M18.939,7.873l1.426-1.497l-0.688-3.168l-3.036-0.901l-0.312,0.289c-1.023-0.338-3.215-0.742-4.681-0.74 C6.667,1.865,2.88,4.598,2.866,7.968c-0.016,3.535,3.413,6.176,8.825,6.176c3.789,0,7.67-2.021,9.31-3.171L18.939,7.873z"/><path fill="#fff" d="M18.406,8.202c0,0-2.15,1.468-4.52,1.91V5.947c2.573,0.324,4.098,2.006,4.098,2.006L19.7,6.181l-0.551-2.486 l-2.344-0.686l-0.297,0.324c-0.951-0.372-2.914-0.854-5.088-0.854c-4.354,0-7.911,2.468-7.917,5.512 c-0.006,2.965,3.012,5.532,7.884,5.532c4.5,0,7.749-2.145,8.767-2.719L18.406,8.202z M10.979,7.417V5.711 c0.595-0.029,1.256,0.001,1.724,0.057v1.649H10.979z M12.702,8.546v1.718c-0.485,0.058-1.224,0.072-1.724,0.036V8.546H12.702z M9.742,5.811v4.371c-0.718,0-3.008-0.842-3.008-2.168C6.734,6.374,9.075,5.921,9.742,5.811z"/><g fill="#fff"><path d="M9.113 9.42V6.573C8.292 6.812 7.37 7.277 7.37 8.014 7.37 8.518 8.148 9.127 9.113 9.42zM17.286 8.139c-.643-.566-1.58-1.159-2.766-1.448v2.627C15.415 9.07 16.397 8.65 17.286 8.139zM11.442 6.917L12.247 6.917 12.247 6.25 11.442 6.218zM11.424 9.072H12.251999999999999V9.773H11.424z"/></g><path fill="#af1e2d" d="M18.281,8.819c-2.813,1.652-4.687,1.973-6.97,1.952c-3.21-0.03-5.039-1.315-5.039-2.845 c0-1.379,1.677-2.694,5.104-2.694c2.306,0,5.085,0.618,6.57,2.082l1.235-1.26L18.76,4.054l-1.822-0.532l-0.331,0.374 c-0.999-0.4-2.688-0.954-5.285-0.954c-3.919,0-7.356,2.264-7.356,5.004c0,2.862,2.993,5.106,7.24,5.106 c4.308,0,6.836-1.623,8.296-2.39L18.281,8.819z"/></svg>
